X: 17894
T: Hostile Winds Of Controversy, The
R: slip jig
M: 9/8
K: Gmajor
e2d egd edB|dBA ABG A2B|1 ~d3 deB dBA|
BGE GAG GBd:|2 ~d3 de/f/g edB|AGE GAG G2E||
|:D2B BdA BAG|AGE EGD EGD|1 E2A ABG ABd|
BGE GAG G2E:|2 E2A AB/^c/d edB|AGE GAG GBd||

